dist/svgs/carbon-icons/svg/document.svg

<?xml version="1.0" encoding="UTF-8"?>
<svg width="12px" height="16px" viewBox="0 0 12 16" version="1.1" xmlns="http://www.w3.org/2000/svg" xmlns:xlink="http://www.w3.org/1999/xlink">
    <!-- Generator: Sketch 50.2 (55047) - http://www.bohemiancoding.com/sketch -->
    <title>document</title>
    <desc>Created with Sketch.</desc>
    <defs></defs>
    <g id="document" stroke="none" stroke-width="1" fill="none" fill-rule="evenodd">
        <path d="M10.5813895,3.99560309 L8.01441679,1.42863035 L8.04015101,3.98773525 L10.5813895,3.99560309 Z M7.01005595,1 L1,1 L1,15 L11,15 L11,4.99690393 L8.03705496,4.98773046 C7.48990191,4.98603644 7.04570346,4.5449187 7.04020157,3.99779069 L7.01005595,1 Z M1,0 L8,0 L12,4 L12,15 C12,15.5522847 11.5522847,16 11,16 L1,16 C0.44771525,16 0,15.5522847 0,15 L0,1 C0,0.44771525 0.44771525,0 1,0 Z" id="Combined-Shape" fill="#000000" fill-rule="nonzero"></path>
        <rect id="line" fill="#000000" x="3" y="9" width="6" height="1"></rect>
        <rect id="line" fill="#000000" x="3" y="12" width="6" height="1"></rect>
    </g>
</svg>

<svg xmlns="http://www.w3.org/2000/svg" viewBox="0 0 12 16"><g fill-rule="evenodd"><path fill-rule="nonzero" d="M10.581 3.996L8.014 1.429l.026 2.559 2.541.008zM7.011 1H1v14h10V4.997l-2.963-.01a1 1 0 01-.997-.99L7.01 1zM1 0h7l4 4v11a1 1 0 01-1 1H1a1 1 0 01-1-1V1a1 1 0 011-1z"/><path d="M3 9h6v1H3zm0 3h6v1H3z"/></g></svg>
